X:34
T:Prairie Schooner
C:Andy De Jarlis
M:4/4
L:1/8
Z:abc by Bruce Osborne - bosborne@kos.net
K:D
AG|F2 A2 A3 A|A3 A (3ABA A2|F2 A2 d2 f2|a4 a3 a|!
b2 a2 a3 a|g2 (3fgf e3 d|d2 c2 c2 B2|(3BcB A2 A3 G|!
F2 A2 A3 A|A3 A (3BcB A2|F2 A2 d2 f2|a4 a3 a|!
b2 a2 a3 a|g2 (3fgf e2 ed|d2 (3cdc B2 c2|d6:|!
|:AG|F2 (3fgf e2 d2|A6 AG|F2 (3fgf e2 d2|B4 B3 B|!
B2 g2 g3 f|(3fgf e2 e3 d|d2 (3cdc c2 B2|(3BcB A2 A2 AG|!
F2 (3fgf e2 d2|A6 AG|F2 (3fgf e2 d2|B4 B3 B|!
B2 g2 g3 f|(3fgf e2 e3 d|d2 (3cdc B2 c2|d6:|!
